X: 16
T:Westlands
% Nottingham Music Database
S:Pauline Wilson, via PR
M:4/4
L:1/4
K:D
"D"A2 A2|"A7"BA FA|"Bm"dd2e|"D"fa3|"G"g2 b2|"D"af/2de/2f|"E"e4|"A7"ag fe|
"D"A2 A2|"A7"BA FA|"Bm"d"5A"d2e|"D"fa3|"G"g2 b2|"D"af de|"E"ff "A7"ee|\
"D"d4||
"G"Bd2d|"Gm"ed/2=fe/2d|"D"BA2F|A4|"Bm"Bf fB|"E7"fe/2de/2f|"A7"e4|AB =c^c|
"D"d2 A2|"A7"BA FA|"D7"dd2f|"Gm"ed3|"D"af dA|"G"Bd g2|"D"fd/2"A7"ed/2c|\
"D"d4||


